X:1
T:Psalm 37
T:V 1
L:1/4
M:12/4
I:linebreak $
K:C
V:1 treble nm="Pipe Organ" snm="Org."
V:1
 A2 A A D E F2 G2 D2 |$[M:14/4] A2 G G A B c2 B2 A3 z |$[M:12/4] A2 G G D2 A2 G F E2 |$ %3
w: Ver- toorn jou oor die bo- se nooit:|hul sal ver- kwyn, hul raak ver- strooid|soos gras wat gou ver- dor, ver- gaan,|
[M:14/4] E2 F G A D F2 E2 D4 |] %4
w: soos spruit- jies wat maar kort bly staan.|

